assets/svgs/misc-grey/MiscGrey92.svg

<svg width="45" height="38" viewBox="0 0 45 38" fill="none" xmlns="http://www.w3.org/2000/svg">
<path fill-rule="evenodd" clip-rule="evenodd" d="M39.91 18.795L44.26 14.449C44.85 13.863 44.85 12.914 44.26 12.328C43.67 11.742 42.72 11.742 42.14 12.328L37.79 16.674L33.45 12.328C32.86 11.742 31.91 11.742 31.33 12.328C30.74 12.914 30.74 13.863 31.33 14.449L35.67 18.795L31.33 23.141C30.74 23.727 30.74 24.676 31.33 25.262C31.62 25.555 32 25.701 32.39 25.701C32.77 25.701 33.15 25.555 33.45 25.262L37.79 20.916L42.14 25.262C42.43 25.555 42.82 25.701 43.2 25.701C43.58 25.701 43.97 25.555 44.26 25.262C44.85 24.676 44.85 23.727 44.26 23.141L39.91 18.795ZM24.71 33.126C24.72 34.008 24.52 34.342 24.45 34.39C24.33 34.469 23.92 34.43 23.69 34.338C21.05 33.084 13.91 29.663 12.65 28.906C11.82 28.406 11.83 27.982 11.87 27.139C11.88 26.98 11.88 26.83 11.88 26.688C11.88 25.757 11.88 10.527 11.88 10.527C11.88 10.526 11.88 10.524 11.88 10.522C11.88 9.93399 12.31 9.59399 12.42 9.51999C13.65 8.93699 20.18 5.35499 23.18 3.46399C23.74 3.11099 24.17 3.10899 24.39 3.22899C24.67 3.37999 24.72 3.76499 24.72 4.00399C24.74 4.69799 24.72 25.256 24.71 33.126ZM8.87999 25.923H3.10999V11.798H8.87999C8.87999 14.989 8.87999 23.291 8.87999 25.923ZM25.83 0.59299C24.58 -0.0840103 22.99 0.0389897 21.58 0.92499C18.4 2.93599 11.74 6.54199 11.13 6.81299C11.08 6.83299 11.03 6.85599 10.98 6.88299C10.46 7.17099 9.71999 7.82599 9.26999 8.79799H1.60999C0.779985 8.79799 0.109985 9.46999 0.109985 10.298V27.423C0.109985 28.251 0.779985 28.923 1.60999 28.923H9.03999C9.28999 29.785 9.84999 30.724 11.11 31.479C12.75 32.465 22.01 36.861 22.45 37.068C22.57 37.123 23.31 37.429 24.23 37.429C24.82 37.429 25.48 37.301 26.09 36.896C27.18 36.186 27.72 34.913 27.71 33.122C27.72 30.205 27.74 4.60699 27.72 3.93499C27.7 2.47499 26.99 1.22599 25.83 0.59299Z" fill="#1A1919"/>
</svg>

<svg xmlns="http://www.w3.org/2000/svg" viewBox="0 0 45 38"><path fill-rule="evenodd" d="M39.91 18.795l4.35-4.346c.59-.586.59-1.535 0-2.121a1.498 1.498 0 00-2.12 0l-4.35 4.346-4.34-4.346a1.498 1.498 0 00-2.12 0 1.492 1.492 0 000 2.121l4.34 4.346-4.34 4.346a1.492 1.492 0 000 2.121c.29.293.67.439 1.06.439.38 0 .76-.146 1.06-.439l4.34-4.346 4.35 4.346c.29.293.68.439 1.06.439s.77-.146 1.06-.439c.59-.586.59-1.535 0-2.121l-4.35-4.346zm-15.2 14.331c.01.882-.19 1.216-.26 1.264-.12.079-.53.04-.76-.052-2.64-1.254-9.78-4.675-11.04-5.432-.83-.5-.82-.924-.78-1.767.01-.159.01-.309.01-.451V10.527v-.005c0-.588.43-.928.54-1.002 1.23-.583 7.76-4.165 10.76-6.056.56-.353.99-.355 1.21-.235.28.151.33.536.33.775.02.694 0 21.252-.01 29.122zM8.88 25.923H3.11V11.798h5.77v14.125zM25.83.593c-1.25-.677-2.84-.554-4.25.332-3.18 2.011-9.84 5.617-10.45 5.888-.05.02-.1.043-.15.07-.52.288-1.26.943-1.71 1.915H1.61a1.5 1.5 0 00-1.5 1.5v17.125c0 .828.67 1.5 1.5 1.5h7.43c.25.862.81 1.801 2.07 2.556 1.64.986 10.9 5.382 11.34 5.589.12.055.86.361 1.78.361.59 0 1.25-.128 1.86-.533 1.09-.71 1.63-1.983 1.62-3.774.01-2.917.03-28.515.01-29.187-.02-1.46-.73-2.709-1.89-3.342z" clip-rule="evenodd"/></svg>
